!!!!SEGMENT: pl-kk--kk-i-315--002_palestrina-giovanni-pierluigi-da--trahe-me-post-curremus.krn
!!!cenid: 16xx:1098
!!!COM: Palestrina, Giovanni Pierluigi da
!!!COM-rismid: pe1904
!!!CDT: ~1525-1594/02/02
!!!CNT: Italian
!!!OTL: Trahe me post curremus
!!!PDT:
!!!AGN: Sacred
!!!SMS-siglum: PL-Kk
!!!SMS-shelfmark: Kk.I.315
!!!SMS-shelfwork: 002 W
!!!SMS-variant:
!!!SMS-altvar:
!!!NIFC-rismid: 1001146220
!!!URL-scan: http://repozytorium.nifc.pl/skany/pl-kk-nut--i-315
!!!ONB-nifc: UWAGA: motety w zbiorze: 1. Osculetur me, 2. Trahe me post curremus, 3. Nigra sum sed formosa, 4. Vineam meam, 5. Si ignoras te o pulchra, 6. Pulchrae sunt genae tuae, 7. Fasciculus myrrhae, 8. Ecce tu pulcher es, 9. Tota pulchra es amica mea, 10. Vulnerasti cor meum, 11. Sicut lilium inter spinas, 12. Introduxit me rex, 13. Laeva ejus, 14. Vox dilecti mei
!!!AIN: 1 alto
!!!key:
**kern	**text
*Ialto	*
*I"[Altus]	*
*I'[A]	*
*clefC2	*
*k[b-]	*
*g:	*
*M2/1	*
*met(C|)	*
=1-	=1-
!LO:TX:a:t=P:problem=inicjał T przed kluczem	!
!LO:TX:a:t=P:problem=w źródle znaki przykluczowe b- B-	!
!LO:TX:b:t=2.	!
1r	.
2rd	.
1d/	Tra-
=2-	=2-
.	.
!LO:TX:a:t=P:problem=all/middle or right	!
2e,</	-he
!LO:TX:a:t=P:problem=all\middle, right or left	!
2f\	me
2g\	post
=3-	=3-
2.a\	te
4g\	.
4a\	.
4b-\	.
1cc\	.
=4-	=4-
.	.
2b-\	.
2.cc\	.
4b-\	.
=5-	=5-
4a\	.
4g\	.
2a,<\	.
2f\	tra-
2g\	-he
!LO:LB:g=original	!
=6-	=6-
2a\	me
(>4g\	.
4f\)	.
2e/	post
1a\	.
=7-	=7-
.	.
2g\	.
1g,<	te
=8-	=8-
2rd	.
1d	tra-
2e/	-he
=9-	=9-
2f,<\	me
2g\	post
2.a\	.
4g\	te
=10-	=10-
4a\	.
4b-\	.
1cc	.
2b-\	.
=11-	=11-
1cc	.
2r	.
!LO:TX:t=P:problem=kreska pseudotaktowa	!
2cc\	cur-
!LO:LB:g=original	!
=12-	=12-
4cc\	-re-
4b-\	.
4a\	.
4g\	.
4f\	.
4g\	.
4a\	.
4b-\	.
=13-	=13-
2cc\	-mus
2f,<\	.
1b-	cur-
=14-	=14-
2a\	.
4g\	-re-
4f\	.
2g\	.
2.cc\	.
=15-	=15-
.	.
4b-\	.
2a\	.
1g	-mus
=16-	=16-
0r	.
=17-	=17-
1r	.
2r	.
!LO:N:acc=#	!
1bn\	in
=18-	=18-
.	.
2cc\	o-
1cc	-do-
=19-	=19-
2cc,<\	-rem
!LO:LB:g=original	!
1a	un-
2a\	-gven-
=20-	=20-
2f\	-to-
2d,</	-ru(m)
2e/	tu-
2.g\	-o-
=21-	=21-
.	.
4f\	.
4f\	.
!LO:N:vis=16	!
8g\L	.
!LO:N:vis=16	!
8a\J	.
*lig	*
1b-y	.
=22-	=22-
1a	.
*Xlig	*
2.g\	.
4f\	.
=23-	=23-
1e	-rum
1r	.
=24-	=24-
2r	.
2g\	in
1a	o-
=25-	=25-
2b-\	-do-
2b-,<\	-rem
!LO:LB:g=original	!
2a\	un-
2g\	-gven-
=26-	=26-
2f\	-to-
2f\	-rum
2rg	.
2a\	tu-
=27-	=27-
1a	-o-
1f	-rum
=28-	=28-
00r	.
=29-	=29-
.	.
=30-	=30-
2rd	.
1g	in-
2e/	-tro-
=31-	=31-
2f\	-du-
2g\	-xit
1a	me
=32-	=32-
2b-,<\	Rex
1a	in
2f\	cel-
!LO:LB:g=original	!
=33-	=33-
2g\	-la-
2a\	-ri-
4b-\	-a
4a\	.
2g\	su-
=34-	=34-
1f,<	-a
4c/	su-
4d/	.
4e/	.
4f/	.
=35-	=35-
4g\	.
4e/	.
2a\	.
1g	-a
=36-	=36-
0r	.
=37-	=37-
2r	.
1f	in-
2f\	-tro-
=38-	=38-
2g\	-du-
2a\	-xit
1b-,<	me
=39-	=39-
2g\	Rex
!LO:LB:g=original	!
2f\	in
1g	cel-
=40-	=40-
2e-X/	-la-
2d/	-ri-
2c/	-am
2c/	Su-
=41-	=41-
2B-,</	-am
1b-	e-
2b-\	-xul-
=42-	=42-
2.a\	-ta-
4a\	-bi-
2a,<\	-mus
1cc\	et
=43-	=43-
.	.
!LO:SIC:l:v:s=lae-	!
2cc\	le-
2.cc\	-ta-
4b-\	-bi-
!LO:LB:g=original	!
=44-	=44-
2cc\	-mur
2a\	in
1a	te
=45-	=45-
2r	.
1a	me-
2d/	-mo-
=46-	=46-
1d,<	-res
2.g\	u-
4g\	-be-
=47-	=47-
2g,<\	-rum
2cc\	tu-
2b-\	-o-
2a,<\	-rum
=48-	=48-
2g\	su-
*custos:f#	*
2g\	-per
!LO:PB:g=original	!
4f#X\	Vi-
2g\	.
4f#\	-num
=49-	=49-
1g	.
2r	.
1g\	me-
=50-	=50-
.	.
2d/	-mo-
1d,<	-res
=51-	=51-
2.e/ny	u-
4e/	-be-
2e,</	-rum
2f\ny	tu-
=52-	=52-
1g	-o-
2c,</	-rum
2e/	su-
=53-	=53-
2f,<\	-per
!LO:LB:g=original	!
2.d/	vi-
4c#X/	.
2c#/	.
=54-	=54-
1d	-num
00r	.
=55-	=55-
.	.
=56-	=56-
.	.
1rf	.
=57-	=57-
2r	.
1g	re-
2f,<\	-cti
=58-	=58-
2.b-\	di-
4g\	-li-
2g,<\	-gunt
1cc\	re-
=59-	=59-
.	.
2g,<\	-cti
2.b-\	di-
4b-\	-li-
!LO:LB:g=original	!
=60-	=60-
2b-,<\	-gunt
2.a\	.
4g\	te
!LO:N:vis=1.	!
1g\	.
=61-	=61-
.	.
2f#X\	.
1g	.
=62-	=62-
2r	.
1g	re-
2d,</	-cti
=63-	=63-
2.b-\	di-
4b-\	-li-
2a,<\	-gunt
2f\ny	te
=64-	=64-
2.g\	di-
4g\	-li-
1f	-gunt
=65-	=65-
1d	te
!LO:LB:g=original	!
2rd	.
1d/	re-
=66-	=66-
.	.
2G/	-cti
!LO:N:acc=#	!
2.Bn/	di-
4B/	-li-
=67-	=67-
(<2.c/ny	-gunt
4d/	.
1e-X)	.
=68-	=68-
00d	te
==	==
*-	*-
!!!RDF**kern: l = terminal long
!!!RDF**kern: > = above
!!!RDF**kern: < = below
!!!EED: Antoni Szymański
!!!EST: 2021-03-28
!!!ENC: Krzysztof Stępień
!!!END: 2021-03-18
